X:1
T:Asturias
T:Isaac Albeniz
L:1/8
M:3/4
K:G
V:1 bass nm="Violoncello" snm="Vlc."
V:1
 E,B, CA, B,G, | E,B, CA, B,G, | E,B, CA, B,G, | A,F, G,A, F,G, | E,B, CA, B,G, | E,B, CA, B,G, | %6
 E,B, CA, B,G, | A,F, G,E, D,C, | B,,B, CA, B,F, | B,,B, CA, B,F, | B,,F, A,B, CD | B,C A,B, G,F, | %12
 B,,B, CA, B,F, | B,,B, CA, B,F, | B,,A, B,C DB, | CA, B,G, A,F, | E,,B, CA, B,G, | %17
 E,,B, CA, B,G, | E,,B, CA, B,G, | A,F, G,A, F,G, | E,,B, CA, B,G, | E,,B, CA, B,G, | %22
 E,,B, CA, B,G, | A,F, G,E, D,C, | [B,,F,]B, CA, B,F, | [B,,F,]B, CA, B,F, | [B,,F,]F, A,B, CD | %27
 B,C A,B, G,F, | [B,,F,]B, CA, B,G, | [B,,F,]B, CA, B,G, | [B,,F,]F, A,B, CD | B,C A,B, G,A, | %32
 E,,B, CA, B,G, | E,,B, CA, B,G, | E,,B, CA, B,G, | A,F, G,A, F,G, | C,C DB, CG, | C,C DB, CG, | %38
 C,C DB, CG, | A,F, G,A, E,F, | B,,B, C^A, B,F, | C,C DB, CG, | B,,B, C^A, B,F, | C,C DB, CG, | %44
 C,C DB, CG, | A,F, G,A, F,G, | E,F, G,A, F,G, | E,F, G,E, D,C, | B,,B, CA, B,G, | A,F, G,A, F,G, | %50
 E,F, G,A, F,G, | E,F, G,E, D,C, | B,,F, B,C ^A,B, | B,,G, CD B,C | B,,F, B,C ^A,B, | %55
 B,,G, CD B,C | B,,F, B,C ^A,B, | B,C ^A,C B,F, | B,,^D, F,B, ^DF | F4 z2 | B,4 A,B, | D4 B,A, | %62
 B,6 | B,,6 | B,4 A,B, | D4 B,A, | B,6 | B,,6 | B,4 ^A,2 | A,2 G,F, E,G, | F,6 | B,,6 | B,4 CB, | %73
 ^A,E, G,F, E,G, | F,4 C,2 | B,,6 | G,2 B,4 | F,2 CD EC | G,2 B,4 | F,4 ^D,2 | E,2 G,2 B,2 | %81
 D,2 F,2 B,2 | C,2 E,2 B,2 | F,,4 ^A,2 | B,,4 F,2 | A,,B,, C,D,/C,/ B,,A,, | B,,4 F,2 | %87
 A,,B,, C,D,/C,/ B,,A,, | B,,4 F,2 | A,B, CD/C/ B,A, | B,^A, G,=A, ^G,E, | =G,F, D,=F, E,C, | %92
 B,,2 F,2 B,2 | B,,C, D,E,/D,/ C,B,, | E,,2 E,2 B,2 | B,,C, D,E,/D,/ C,B,, | E,,2 E,2 B,2 | %97
 A,,2 G,,2 F,,2 | E,,2 ^D,2 E,2 | C,F, B,,D,/E,/ A,,D, | G,,D, F,,D, G,,C, | =F,G, A,C B,A, | %102
 CA, G,^F, A,C | A,,2 E,2 ^A,,2 | B,,2 F,2 B,2 | C,D, E,2 D,C, | B,,2 F,2 B,2 | C,D, E,2 D,C, | %108
 B,,2 F,2 B,2 | G,^A, B,D =A,B, | D,^E, F,A, ^E,F, | C,F, G,E, D,C, | B,,4 A,B, | D4 B,A, | B,6 | %115
 B,,6 | B,4 A,B, | D4 B,A, | B,4 C,2 | B,,6 | B,,2 z2 B,2 | C,4 A,2 | G,,6 | A,,4 F,2 | E,,6 | %125
 A,4 B,2 | A,4 E2 | B,,6- | B,,2 G,2 F,2 | E,B, CA, B,G, | E,B, CA, B,G, | E,C, ^A,,C, ^A,,C, | %132
 ^A,,C, ^A,,C, ^A,,C, | E,,2 G,2 E2 | E,,6 |] %135

